Unicodia/Resources/Scripts/3100.svg

<?xml version="1.0" encoding="UTF-8" standalone="no"?>
<!-- Created with Inkscape (http://www.inkscape.org/) -->

<svg
   width="16"
   height="16"
   viewBox="0 0 16 16"
   version="1.1"
   id="svg5"
   inkscape:version="1.2.2 (732a01da63, 2022-12-09)"
   sodipodi:docname="3100.svg"
   inkscape:export-filename="..\0000.png"
   inkscape:export-xdpi="96"
   inkscape:export-ydpi="96"
   xml:space="preserve"
   xmlns:inkscape="http://www.inkscape.org/namespaces/inkscape"
   xmlns:sodipodi="http://sodipodi.sourceforge.net/DTD/sodipodi-0.dtd"
   xmlns="http://www.w3.org/2000/svg"
   xmlns:svg="http://www.w3.org/2000/svg"><sodipodi:namedview
     id="namedview7"
     pagecolor="#ffffff"
     bordercolor="#666666"
     borderopacity="1.0"
     inkscape:pageshadow="2"
     inkscape:pageopacity="0"
     inkscape:pagecheckerboard="0"
     inkscape:document-units="px"
     showgrid="true"
     width="16mm"
     units="px"
     inkscape:zoom="33.322407"
     inkscape:cx="5.2367165"
     inkscape:cy="6.0619871"
     inkscape:window-width="1680"
     inkscape:window-height="998"
     inkscape:window-x="-8"
     inkscape:window-y="-8"
     inkscape:window-maximized="1"
     inkscape:current-layer="layer1"
     showguides="true"
     inkscape:guide-bbox="true"
     inkscape:snap-bbox="true"
     inkscape:bbox-paths="true"
     inkscape:bbox-nodes="true"
     inkscape:snap-global="true"
     inkscape:showpageshadow="2"
     inkscape:deskcolor="#ffffff"><inkscape:grid
       type="xygrid"
       id="grid828"
       originx="0"
       originy="0" /></sodipodi:namedview><defs
     id="defs2" /><g
     inkscape:label="Layer 1"
     inkscape:groupmode="layer"
     id="layer1"><rect
       style="fill:#fff0f5"
       id="rect691"
       width="16"
       height="16"
       x="0"
       y="0" /><path
       d="M 13.599216,6.358659 C 13.358621,6.0378654 13.077927,5.757171 12.797232,5.556675 12.336092,5.2759806 11.834851,5.155683 11.39376,5.1356334 9.9100899,5.0554354 7.6645346,5.2358814 5.1984337,5.4965262 c 0,0 2.3257537,-2.2856545 2.7668449,-2.6465473 C 8.2660226,2.6294333 8.4665186,2.3888381 8.2058738,2.0078957 7.945229,1.6269533 7.644485,1.3663085 7.3637906,1.1858621 6.842501,0.84501884 6.7222034,1.1056641 6.8625506,1.5066557 6.9627986,1.8073997 7.0028978,2.0279453 6.8826006,2.3286893 6.5016582,3.1908221 4.7773925,4.9952862 4.0756565,5.4163278 3.4541189,5.7772206 3.1533749,5.8373694 3.2335733,6.3185598 3.3538709,6.9400974 3.3739205,6.759651 4.2160037,6.5391054 5.1984341,6.2784606 6.8425014,6.057915 8.3863206,5.957667 7.0028982,8.7445615 4.9578389,11.33096 2.3914901,12.83468 1.188514,13.536416 1.2085636,13.997557 2.7323333,13.35597 5.4590789,12.173043 8.1256758,9.2257519 9.5491975,5.9175678 10.351181,5.8975178 11.032868,5.9376178 11.494009,6.0378654 12.476439,6.258411 12.556637,6.759651 12.39624,7.4012382 11.995248,8.9250079 10.992768,11.230712 10.150685,12.413638 9.3487011,13.476267 9.3487011,13.596565 8.6870642,13.33592 7.8650306,12.995077 7.4640386,12.714382 7.1231954,12.533936 6.4615586,12.152994 6.3613106,12.31339 6.7021538,12.754482 c 0.6616368,0.801984 1.2831744,1.403472 1.5438192,1.764364 0.4210416,0.641588 0.50124,0.701736 1.3834225,-0.0401 C 11.734604,12.794581 13.338572,7.7420815 13.639316,7.4012382 14.000208,6.960147 13.94006,6.8197998 13.599216,6.358659 Z"
       style="font-weight:bold;font-size:medium;line-height:1.25;font-family:'Noto Serif CJK SC';-inkscape-font-specification:'Noto Serif CJK SC Bold';text-align:center;letter-spacing:0px;word-spacing:0px;text-anchor:middle;fill:#5c3566"
       id="path56350" /></g></svg>

<svg height="16" viewBox="0 0 16 16" width="16" xmlns="http://www.w3.org/2000/svg"><path d="m0 0h16v16h-16z" fill="#fff0f5"/><path d="m13.6 6.36c-.24-.32-.52-.6-.8-.8-.46-.28-.97-.4-1.41-.42-1.48-.08-3.73.1-6.19.36 0 0 2.33-2.29 2.77-2.65.3-.22.5-.46.24-.84s-.57-.64-.85-.82c-.52-.34-.64-.08-.5.32.1.3.14.52.02.82-.38.86-2.1 2.67-2.8 3.09-.63.36-.93.42-.85.9.12.62.14.44.99.22.98-.26 2.62-.48 4.17-.58-1.39 2.78-3.43 5.37-6 6.87-1.2.71-1.18 1.17.34.53 2.73-1.19 5.4-4.13 6.82-7.44.8-.02 1.48.02 1.94.12.99.22 1.07.72.91 1.36-.4 1.53-1.41 3.83-2.25 5.01-.8 1.07-.8 1.19-1.46.93-.82-.34-1.23-.63-1.57-.81-.66-.38-.76-.22-.42.22.66.8 1.28 1.4 1.54 1.76.42.64.5.7 1.38-.04 2.11-1.68 3.72-6.73 4.02-7.07.36-.44.3-.58-.04-1.04z" fill="#5c3566"/></svg>
